icons/svgs/expand-outline.svg

<svg width="24" height="24" viewBox="0 0 24 24" fill="none" xmlns="http://www.w3.org/2000/svg">
<path d="M8.5625 3.25C9.07031 3.25 9.5 3.67969 9.5 4.1875C9.5 4.73438 9.07031 5.125 8.5625 5.125H5.125V8.5625C5.125 9.10938 4.69531 9.5 4.1875 9.5C3.64062 9.5 3.25 9.10938 3.25 8.5625V4.1875C3.25 3.67969 3.64062 3.25 4.1875 3.25H8.5625ZM3.25 15.4375C3.25 14.9297 3.64062 14.5 4.1875 14.5C4.69531 14.5 5.125 14.9297 5.125 15.4375V18.875H8.5625C9.07031 18.875 9.5 19.3047 9.5 19.8125C9.5 20.3594 9.07031 20.75 8.5625 20.75H4.1875C3.64062 20.75 3.25 20.3594 3.25 19.8125V15.4375ZM19.8125 3.25C20.3203 3.25 20.75 3.67969 20.75 4.1875V8.5625C20.75 9.10938 20.3203 9.5 19.8125 9.5C19.2656 9.5 18.875 9.10938 18.875 8.5625V5.125H15.4375C14.8906 5.125 14.5 4.73438 14.5 4.1875C14.5 3.67969 14.8906 3.25 15.4375 3.25H19.8125ZM18.875 15.4375C18.875 14.9297 19.2656 14.5 19.8125 14.5C20.3203 14.5 20.75 14.9297 20.75 15.4375V19.8125C20.75 20.3594 20.3203 20.75 19.8125 20.75H15.4375C14.8906 20.75 14.5 20.3594 14.5 19.8125C14.5 19.3047 14.8906 18.875 15.4375 18.875H18.875V15.4375Z" fill="black"/>
</svg>

<svg xmlns="http://www.w3.org/2000/svg" width="24" height="24" fill="currentColor" class="icon-expand-outline" viewBox="0 0 24 24">
  <mask id="a" width="18" height="18" x="3" y="3" maskUnits="userSpaceOnUse" style="mask-type:alpha">
    <path d="M8.563 3.25a.95.95 0 0 1 .937.938c0 .546-.43.937-.937.937H5.124v3.438c0 .546-.43.937-.937.937-.547 0-.938-.39-.938-.937V4.187c0-.507.39-.937.938-.937zM3.25 15.438c0-.508.39-.938.938-.938a.95.95 0 0 1 .937.938v3.437h3.438a.95.95 0 0 1 .937.938c0 .546-.43.937-.937.937H4.187c-.546 0-.937-.39-.937-.937zM19.813 3.25a.95.95 0 0 1 .937.938v4.375c0 .546-.43.937-.937.937-.547 0-.938-.39-.938-.937V5.124h-3.437c-.547 0-.938-.39-.938-.937 0-.508.39-.938.938-.938zm-.938 12.188c0-.508.39-.938.938-.938a.95.95 0 0 1 .937.938v4.374c0 .547-.43.938-.937.938h-4.375c-.547 0-.938-.39-.938-.937 0-.508.39-.938.938-.938h3.437z"/>
  </mask>
  <g mask="url(#a)">
    <path d="M0 0h24v24H0z"/>
  </g>
</svg>
